!!!OTL: WAS WOELLN WIR AUF DEN ABEND THUN
!!!ARE: Europa, Mitteleuropa, Deutschland
!!!SCT: E1120B
!!!YEM: Copyright 1995, estate of Helmut Schaffrath.
**kern
*ICvox
*Ivox
*M4/4
*k[f#]
*G:
{4d
=1
4g
4g
4a
4a
=2
4b
8a
8g
4a}
{4cc
=3
4b
4g
4f#
8e
8f#
=4
2g
4r}
{4d
=5
4g
4g
4a
4a
=6
4b
8a
8g
4a}
{4cc
=7
4b
4g
4f#
8e
8f#
=8
2g
2r}
=9
{4cc
4b
4a
8g
8a
=10
4b
8a
8g
4a}
{4b
=11
4cc
4b
4a
8g
8a
=12
4b
8a
8g
4a
4r}
=13
{4b
4g
4f#
8e
8f#
=14
2.g}
==
!!!AGN: Trink -, Zech - Lied
!!!ONB: ESAC (Essen Associative Code) Database: ERK3
!!!AMT: simple quadruple
!!!AIN: vox
!!!EED: Helmut Schaffrath
!!!EEV: 1.0
*-
